X:1
T: Auld Wattie
C:
R:Jig
Q:180
K:Am
M:6/8
L:1/16
|:e6 A2B2d2|e4d2 B4d2|e6 A2B2d2|B2A2G2 A2B2d2|
e6 A2B2d2|e4d2 B4d2|e2e2g2 d2d2g2|B2A2G2 A2B2d2|
e2A2B2 e2A2B2|e2A2B2 e4d2|e2A2B2 e2A2B2|d2B2G2 A2B2d2|
e2A2B2 e2A2B2|e2A2B2 e4d2|e2e2g2 d2d2g2|1B2A2G2 A2B2d2:|2B2A2G2 A6||
